X: 0212
T: The Eightsome Reel
P: The Deil amang the Tailors
C:Thompson 1772
R:Reel (1x464)
B:RSCDS 2-12
Z:Anselm Lingnau <anselm@strathspey.org>
M:C|
L:1/8
K:A
|:(3efg|"A"a2 eg a2 eg|a2 ea fedc|"Bm"dfBf dfBf|dfba "E"gefg|
        "A"a2 eg a2 eg|a2 ea fedc|"Bm"defd "A"ecBA|"E"E2 G2 "A"A2:|
|:e2|"A"ceAe ceAe|ceag fedc|"Bm"dfBf dfBf|dfba "E"gfed|
     "A"ceAe ceAe|ceag fedc|"Bm"defd "A"ecBA|"E"E2 G2 "A"A2|]
%%center Book02/0212-Eightsome_Reel-AL.abc

%%newpage
%%center OTHER TRANSCRIPTIONS
%%sep 3 1 500
%%sep 1 1 500

%%sep 1 1 500
%%sep 1 1 500

